icon-svg/modbus.svg

<svg xmlns="http://www.w3.org/2000/svg" fill="#44739e" viewBox="0 0 24 24"><path d="M21.933 11.515c-.022-.022-.145-.1-.784-.1h-.036c-.523 0-.707.058-.768.109a.555.555 0 0 0-.227.485c0 .238.145.335.5.335h.654c.154 0 .254.063.254.161 0 .114-.089.248-.341.248h-.433c-.3 0-.342-.116-.342-.185h-.45a.62.62 0 0 0-.016.124.316.316 0 0 0 .089.239 1.71 1.71 0 0 0 .823.116c.25 0 .77 0 .913-.145a.846.846 0 0 0 .193-.518.278.278 0 0 0-.079-.22c-.041-.04-.191-.109-.735-.109-.507 0-.6-.039-.6-.151 0-.132.147-.191.476-.191s.44.008.5.071a.135.135 0 0 1 .039.073h.447c0-.042.007-.1.007-.134v-.013a.235.235 0 0 0-.084-.195m-3.026.972a.662.662 0 0 1-.465.169.68.68 0 0 1-.384-.118c-.1-.1.037-.763.116-1.1H17.7c-.07.32-.224 1.052-.224 1.177a.369.369 0 0 0 .336.407 1.3 1.3 0 0 0 .3.028 1.06 1.06 0 0 0 .256-.028.96.96 0 0 0 .53-.332l.126-.157-.093.487h.45l.309-1.579h-.47a3.46 3.46 0 0 1-.313 1.046m-1.885-.987c-.047-.04-.186-.088-.584-.088-.45 0-.609.1-.731.261l-.132.18.215-1.108h-.481l-.449 2.266h.49l.07-.361.065.15c.058.137.142.241.624.241s.6-.025.735-.166a2.33 2.33 0 0 0 .294-.954.452.452 0 0 0-.116-.42zm-.385.757v.008c-.051.179-.074.261-.148.314a1.48 1.48 0 0 1-.465.083c-.1 0-.416-.006-.5-.088-.014-.014-.056-.056-.026-.269.018-.127.076-.38.168-.431a1.09 1.09 0 0 1 .468-.073c.279 0 .414.015.47.071a.394.394 0 0 1 .033.389zm-2.537-.448-.064-.152c-.075-.18-.216-.241-.557-.241-.582 0-.675.092-.843.26a2.15 2.15 0 0 0-.25.886v.038a.413.413 0 0 0 .091.323c.116.117.208.126.671.126.427 0 .582-.136.661-.238l.129-.166-.072.374h.5l.443-2.27H14.3Zm-.062.287-.04.2c-.043.163-.066.242-.138.293a1.47 1.47 0 0 1-.468.083c-.1 0-.416-.007-.5-.089-.014-.014-.056-.056-.026-.269.018-.127.076-.38.168-.431a1.12 1.12 0 0 1 .468-.073c.279 0 .413.016.472.071a.263.263 0 0 1 .063.209zm-2.121-.561a1.445 1.445 0 0 0-.769-.119 1.42 1.42 0 0 0-1.034.26 2.15 2.15 0 0 0-.25.886v.038a.412.412 0 0 0 .09.323c.117.117.431.126.9.126a1.59 1.59 0 0 0 .907-.2c.145-.1.26-.657.287-.922a.458.458 0 0 0-.126-.388zm-.392.726v.008c-.05.179-.073.261-.147.314a1.48 1.48 0 0 1-.465.083c-.1 0-.416-.006-.5-.088-.014-.014-.057-.056-.026-.269.018-.127.076-.38.168-.431a1.08 1.08 0 0 1 .467-.073c.28 0 .415.015.471.071s.093.168.032.385m-3.924-.035-.509-1.481H6.083l-.456 2.27h.585l.356-1.812.643 1.812h.465l1.361-1.834-.359 1.834h.568l.462-2.27H8.706Zm-1.868-.248-.02.012.017.004Zm-.021.105-.023-.007.018.035Zm-.129.641.027-.132.029-.144.013-.067-.216-.099Zm1.294-2.079v-.11l-.119.11zm-1.073.982.002-.009.022-.113-.19.177.152.011zm1.83.386.211-.282a.8.8 0 0 0-.289.056zm.093 1.103h-.418A.8.8 0 0 0 8.5 12.072Zm-1.104-2.471.193-.179-.263-.017.074-.071.318.029v.238h.215l.127.355a.8.8 0 1 0-.955-.358Zm.708.484.182.531.04-.015a2.1 2.1 0 0 0-.145-.547.7.7 0 0 1-.077.031m-.735.453-.11.562-.013.066.385.112-.027-.078Zm.144 2.027a2.28 2.28 0 0 0 .426-.447.92.92 0 0 1-.213-.448l.05.015-.017-.047-.036.02a.9.9 0 0 1-.033-.173V12.5l-.028-.078-.434-.122-.012.066-.148.753h-.582l.265.8.128-.242.037.11-.162.283-.3-.13-.037-.109.247.117-.276-.824h-.11l.016-.08.026-.132-.2-.593-.125.231-.034-.1.156-.279.293.127.011.022.01.03.023-.114L5.566 12l.186-.113.023-.111-.27-.027-.005-.326.083-.077v.272l.283-.263.023-.113.12-.6h.18a.923.923 0 0 1-.011-.767 2.4 2.4 0 0 0-.635-.164.936.936 0 0 1-.581.672l-.037-.129a.8.8 0 1 0-.293.056.6.6 0 0 0 .076 0l.038.131a1.1 1.1 0 0 1-.114.007.93.93 0 0 1-.721-.342 2.32 2.32 0 0 0-.475.43.92.92 0 0 1 .315.837l-.13-.04a.7.7 0 0 0 0-.09.794.794 0 1 0-.061.308l.128.039a.935.935 0 0 1-.745.577 2.13 2.13 0 0 0 .163.6.927.927 0 0 1 1.024.133l-.095.094a.806.806 0 1 0 .148.168l.1-.1a.928.928 0 0 1 .094.9 2.42 2.42 0 0 0 .716.156.934.934 0 0 1 .537-.769l.043.128a.8.8 0 1 0 .349-.081.86.86 0 0 0-.136.012l-.043-.128a.9.9 0 0 1 .179-.018.931.931 0 0 1 .718.347M4.6 9.737l-.128.249-.036-.118.164-.294.293.162.034.117-.242-.141.526 1.817.134-.255.037.128-.168.294-.3-.159-.037-.127.248.144zm-1.543 1.589.131.241-.113-.035-.156-.3.294-.158.113.035-.245.128 1.777.544-.137-.247.121.037.153.3-.294.162L4.579 12l.252-.128Zm1.958 1.191v-.268L3.77 13.472l.276.007-.085.085-.327-.021-.015-.327.084-.082v.275l1.241-1.227-.265-.006.075-.076.326.015.009.326Z"/></svg>

<?xml version="1.0" encoding="UTF-8"?>
<svg width="24px" fill="#44739e" height="24px" viewBox="0 0 24 24" version="1.1" xmlns="http://www.w3.org/2000/svg" xmlns:xlink="http://www.w3.org/1999/xlink">
            <path d="m 21.933,11.515 c -0.022,-0.022 -0.145,-0.1 -0.784,-0.1 h -0.036 c -0.523,0 -0.707,0.058 -0.768,0.109 a 0.555,0.555 0 0 0 -0.227,0.485 c 0,0.238 0.145,0.335 0.5,0.335 h 0.654 c 0.154,0 0.254,0.063 0.254,0.161 0,0.114 -0.089,0.248 -0.341,0.248 h -0.433 c -0.3,0 -0.342,-0.116 -0.342,-0.185 v 0 h -0.45 a 0.623,0.623 0 0 0 -0.016,0.124 0.316,0.316 0 0 0 0.089,0.239 1.711,1.711 0 0 0 0.823,0.116 c 0.25,0 0.77,0 0.913,-0.145 a 0.846,0.846 0 0 0 0.193,-0.518 0.278,0.278 0 0 0 -0.079,-0.22 c -0.041,-0.04 -0.191,-0.109 -0.735,-0.109 -0.507,0 -0.6,-0.039 -0.6,-0.151 0,-0.132 0.147,-0.191 0.476,-0.191 0.329,0 0.44,0.008 0.5,0.071 a 0.135,0.135 0 0 1 0.039,0.073 h 0.447 c 0,-0.042 0.007,-0.1 0.007,-0.134 V 11.71 a 0.235,0.235 0 0 0 -0.084,-0.195 z m -3.026,0.972 a 0.662,0.662 0 0 1 -0.465,0.169 0.682,0.682 0 0 1 -0.384,-0.118 c -0.1,-0.1 0.037,-0.763 0.116,-1.1 H 17.7 c -0.07,0.32 -0.224,1.052 -0.224,1.177 a 0.369,0.369 0 0 0 0.336,0.407 1.313,1.313 0 0 0 0.3,0.028 1.062,1.062 0 0 0 0.256,-0.028 0.959,0.959 0 0 0 0.53,-0.332 l 0.126,-0.157 -0.093,0.487 h 0.45 l 0.309,-1.579 h -0.47 a 3.463,3.463 0 0 1 -0.313,1.046 z M 17.022,11.5 c -0.047,-0.04 -0.186,-0.088 -0.584,-0.088 -0.45,0 -0.609,0.1 -0.731,0.261 l -0.132,0.18 0.215,-1.108 h -0.481 l -0.449,2.266 h 0.49 l 0.07,-0.361 0.065,0.15 c 0.058,0.137 0.142,0.241 0.624,0.241 0.482,0 0.6,-0.025 0.735,-0.166 a 2.331,2.331 0 0 0 0.294,-0.954 0.452,0.452 0 0 0 -0.116,-0.42 z m -0.385,0.757 v 0.008 c -0.051,0.179 -0.074,0.261 -0.148,0.314 a 1.476,1.476 0 0 1 -0.465,0.083 c -0.1,0 -0.416,-0.006 -0.5,-0.088 -0.014,-0.014 -0.056,-0.056 -0.026,-0.269 0.018,-0.127 0.076,-0.38 0.168,-0.431 a 1.086,1.086 0 0 1 0.468,-0.073 c 0.279,0 0.414,0.015 0.47,0.071 a 0.394,0.394 0 0 1 0.033,0.389 z M 14.1,11.809 14.036,11.657 c -0.075,-0.18 -0.216,-0.241 -0.557,-0.241 -0.582,0 -0.675,0.092 -0.843,0.26 a 2.154,2.154 0 0 0 -0.25,0.886 V 12.6 a 0.413,0.413 0 0 0 0.091,0.323 c 0.116,0.117 0.208,0.126 0.671,0.126 0.427,0 0.582,-0.136 0.661,-0.238 l 0.129,-0.166 -0.072,0.374 h 0.5 l 0.443,-2.27 H 14.3 Z m -0.062,0.287 -0.04,0.2 c -0.043,0.163 -0.066,0.242 -0.138,0.293 a 1.47,1.47 0 0 1 -0.468,0.083 c -0.1,0 -0.416,-0.007 -0.5,-0.089 -0.014,-0.014 -0.056,-0.056 -0.026,-0.269 0.018,-0.127 0.076,-0.38 0.168,-0.431 a 1.117,1.117 0 0 1 0.468,-0.073 c 0.279,0 0.413,0.016 0.472,0.071 a 0.263,0.263 0 0 1 0.063,0.209 z m -2.121,-0.561 a 1.445,1.445 0 0 0 -0.769,-0.119 1.42,1.42 0 0 0 -1.034,0.26 2.154,2.154 0 0 0 -0.25,0.886 V 12.6 a 0.412,0.412 0 0 0 0.09,0.323 c 0.117,0.117 0.431,0.126 0.9,0.126 a 1.59,1.59 0 0 0 0.907,-0.2 c 0.145,-0.1 0.26,-0.657 0.287,-0.922 a 0.458,0.458 0 0 0 -0.126,-0.388 z m -0.392,0.726 v 0.008 c -0.05,0.179 -0.073,0.261 -0.147,0.314 a 1.476,1.476 0 0 1 -0.465,0.083 c -0.1,0 -0.416,-0.006 -0.5,-0.088 -0.014,-0.014 -0.057,-0.056 -0.026,-0.269 0.018,-0.127 0.076,-0.38 0.168,-0.431 a 1.084,1.084 0 0 1 0.467,-0.073 c 0.28,0 0.415,0.015 0.471,0.071 0.056,0.056 0.093,0.168 0.032,0.385 z M 7.601,12.226 7.092,10.745 H 6.083 l -0.456,2.27 h 0.585 l 0.356,-1.812 0.643,1.812 h 0.465 l 1.361,-1.834 -0.359,1.834 h 0.568 l 0.462,-2.27 H 8.706 Z M 5.733,11.978 5.713,11.99 5.73,11.994 Z M 5.712,12.083 5.689,12.076 5.707,12.111 Z M 5.583,12.724 5.61,12.592 5.639,12.448 5.652,12.381 5.436,12.282 Z m 1.294,-2.079 v -0.11 l -0.119,0.11 z m -1.073,0.982 0.002,-0.009 0.022,-0.113 -0.19,0.177 0.152,0.011 z m 1.83,0.386 0.211,-0.282 a 0.8,0.8 0 0 0 -0.289,0.056 z m 0.093,1.103 H 7.309 A 0.8,0.8 0 0 0 8.5,12.072 Z M 6.623,10.645 6.816,10.466 6.553,10.449 6.627,10.378 6.945,10.407 v 0.238 H 7.16 L 7.287,11 A 0.8,0.8 0 1 0 6.332,10.642 Z m 0.708,0.484 0.182,0.531 0.04,-0.015 A 2.1,2.1 0 0 0 7.408,11.098 0.728,0.728 0 0 1 7.331,11.129 Z M 6.596,11.582 6.486,12.144 6.473,12.21 6.858,12.322 6.831,12.244 Z M 6.74,13.609 A 2.283,2.283 0 0 0 7.166,13.162 0.922,0.922 0 0 1 6.953,12.714 l 0.05,0.015 -0.017,-0.047 -0.036,0.02 A 0.912,0.912 0 0 1 6.917,12.529 v -0.029 0 L 6.889,12.422 6.455,12.3 6.443,12.366 6.295,13.119 H 5.713 l 0.265,0.8 0.128,-0.242 0.037,0.11 -0.162,0.283 -0.3,-0.13 -0.037,-0.109 0.247,0.117 -0.276,-0.824 h -0.11 l 0.016,-0.08 0.026,-0.132 -0.2,-0.593 -0.125,0.231 -0.034,-0.1 0.156,-0.279 0.293,0.127 0.011,0.022 0.01,0.03 L 5.681,12.236 5.566,12 5.752,11.887 5.775,11.776 5.505,11.749 5.5,11.423 5.583,11.346 v 0.272 l 0.283,-0.263 0.023,-0.113 0.12,-0.6 h 0.18 A 0.923,0.923 0 0 1 6.178,9.875 2.392,2.392 0 0 0 5.543,9.711 0.936,0.936 0 0 1 4.962,10.383 L 4.925,10.254 a 0.8,0.8 0 1 0 -0.293,0.056 0.634,0.634 0 0 0 0.076,0 l 0.038,0.131 a 1.073,1.073 0 0 1 -0.114,0.007 0.93,0.93 0 0 1 -0.721,-0.342 2.32,2.32 0 0 0 -0.475,0.43 0.92,0.92 0 0 1 0.315,0.837 l -0.13,-0.04 a 0.67,0.67 0 0 0 0,-0.09 0.794,0.794 0 1 0 -0.061,0.308 l 0.128,0.039 a 0.935,0.935 0 0 1 -0.745,0.577 2.127,2.127 0 0 0 0.163,0.6 0.927,0.927 0 0 1 1.024,0.133 l -0.095,0.094 a 0.806,0.806 0 1 0 0.148,0.168 l 0.1,-0.1 a 0.928,0.928 0 0 1 0.094,0.9 2.421,2.421 0 0 0 0.716,0.156 0.934,0.934 0 0 1 0.537,-0.769 l 0.043,0.128 A 0.8,0.8 0 1 0 6.022,13.396 0.86,0.86 0 0 0 5.886,13.408 L 5.843,13.28 A 0.884,0.884 0 0 1 6.022,13.262 0.931,0.931 0 0 1 6.74,13.609 Z M 4.6,9.737 4.472,9.986 4.436,9.868 4.6,9.574 4.893,9.736 4.927,9.853 4.685,9.712 l 0.526,1.817 0.134,-0.255 0.037,0.128 -0.168,0.294 -0.3,-0.159 -0.037,-0.127 0.248,0.144 z m -1.543,1.589 0.131,0.241 -0.113,-0.035 -0.156,-0.3 0.294,-0.158 0.113,0.035 -0.245,0.128 1.777,0.544 -0.137,-0.247 0.121,0.037 0.153,0.3 L 4.701,12.033 4.579,12 4.831,11.872 Z m 1.958,1.191 V 12.249 L 3.77,13.472 4.046,13.479 3.961,13.564 3.634,13.543 3.619,13.216 3.703,13.134 v 0.275 L 4.944,12.182 4.679,12.176 4.754,12.1 5.08,12.115 5.089,12.441 Z"/>

</svg>
